src/images/Star.svg

<svg width="18" height="19" viewBox="0 0 18 19" fill="none" xmlns="http://www.w3.org/2000/svg">
<path d="M10.8313 3.93223L11.32 5.413C11.5408 6.09837 12.1769 6.56429 12.897 6.568H14.437C15.1593 6.56341 15.8014 7.02678 16.0247 7.71365C16.2481 8.40052 16.0012 9.15294 15.4143 9.57397L14.1483 10.492C13.5655 10.9151 13.3205 11.6648 13.5411 12.3504L14.0298 13.8312C14.2715 14.5191 14.0355 15.2842 13.4484 15.7165C12.8612 16.1488 12.0606 16.1469 11.4755 15.7118L10.2316 14.7863C9.64853 14.3639 8.86007 14.3639 8.27699 14.7863L7.03314 15.7118C6.4513 16.1376 5.66098 16.1388 5.07793 15.7146C4.49488 15.2904 4.25271 14.5381 4.47881 13.8534L4.96746 12.3726C5.18807 11.6871 4.94315 10.9374 4.36035 10.5143L3.06467 9.58137C2.46592 9.15947 2.21484 8.39475 2.44698 7.70005C2.67912 7.00534 3.33949 6.54519 4.0716 6.568H5.6116C6.3277 6.5664 6.96265 6.10732 7.18862 5.42781L7.67728 3.94703C7.89634 3.26307 8.53074 2.79782 9.24892 2.79445C9.9671 2.79108 10.6058 3.25035 10.8313 3.93223Z" fill="#FFCC29"/>
</svg>

<svg xmlns="http://www.w3.org/2000/svg" width="18" height="19" fill="none"><path fill="#FFCC29" d="m10.831 3.932.489 1.481c.22.685.857 1.151 1.577 1.155h1.54a1.658 1.658 0 0 1 .977 3.006l-1.266.918a1.67 1.67 0 0 0-.607 1.858l.489 1.481a1.659 1.659 0 0 1-2.554 1.88l-1.244-.925a1.67 1.67 0 0 0-1.955 0l-1.244.926a1.659 1.659 0 0 1-2.554-1.859l.488-1.48a1.67 1.67 0 0 0-.607-1.859l-1.295-.933a1.658 1.658 0 0 1 1.007-3.013h1.54a1.67 1.67 0 0 0 1.577-1.14l.488-1.481a1.658 1.658 0 0 1 3.154-.015"/></svg>
